app/assets/images/Contenido/Odin/Group 138Registrarse.svg

<svg fill="none" height="67" viewBox="0 0 195 67" width="195" xmlns="http://www.w3.org/2000/svg" xmlns:xlink="http://www.w3.org/1999/xlink"><filter id="a" color-interpolation-filters="sRGB" filterUnits="userSpaceOnUse" height="66.6196" width="194.62" x=".255126" y=".190184"><feFlood flood-opacity="0" result="BackgroundImageFix"/><feColorMatrix in="SourceAlpha" result="hardAlpha" type="matrix" values="0 0 0 0 0 0 0 0 0 0 0 0 0 0 0 0 0 0 127 0"/><feMorphology in="SourceAlpha" operator="dilate" radius="1.4683" result="effect1_dropShadow_22_6224"/><feOffset/><feGaussianBlur stdDeviation="3.67076"/><feComposite in2="hardAlpha" operator="out"/><feColorMatrix type="matrix" values="0 0 0 0 0 0 0 0 0 0 0 0 0 0 0 0 0 0 0.25 0"/><feBlend in2="BackgroundImageFix" mode="normal" result="effect1_dropShadow_22_6224"/><feBlend in="SourceGraphic" in2="effect1_dropShadow_22_6224" mode="normal" result="shape"/></filter><g filter="url(#a)"><rect fill="#0ead74" height="49" rx="13.2147" width="177" x="9.06494" y="9"/></g><path d="m38.976 41.9812h-3.5974l-3.6744-5.2675c-.2313.0257-.4625.0257-.6938.0257h-4.0598v5.2418h-3.3404v-17.9867h7.4002c4.728 0 7.6572 2.4154 7.6572 6.3981 0 2.7237-1.3875 4.728-3.8286 5.6787zm-3.6745-11.5886c0-2.2612-1.516-3.5716-4.4452-3.5716h-3.9057v7.169h3.9057c2.9292 0 4.4452-1.3362 4.4452-3.5974zm19.6941 4.805c0 .257-.0257.6424-.0514.9508h-10.7663c.3854 2.0042 2.0556 3.289 4.4452 3.289 1.5418 0 2.7494-.4882 3.7259-1.4904l1.7215 1.9786c-1.2333 1.4646-3.1605 2.2355-5.5244 2.2355-4.5995 0-7.5802-2.955-7.5802-7.0405 0-4.0856 3.0064-7.0149 7.0919-7.0149 4.0085 0 6.9378 2.8008 6.9378 7.0919zm-6.9378-4.5223c-2.0813 0-3.5973 1.3361-3.9056 3.3404h7.7856c-.2569-1.9786-1.7729-3.3404-3.88-3.3404zm20.5838-2.4154h3.0577v11.64c0 4.9849-2.5952 7.2461-7.4002 7.2461-2.5695 0-5.1134-.6681-6.6808-1.9529l1.4389-2.4153c1.2077 1.0021 3.1606 1.6445 5.062 1.6445 3.0321 0 4.3682-1.3876 4.3682-4.1627v-.7195c-1.1306 1.2334-2.7494 1.8244-4.5994 1.8244-3.9314 0-6.9378-2.6723-6.9378-6.6551 0-3.9827 3.0064-6.6037 6.9378-6.6037 1.9271 0 3.623.6167 4.7536 1.9786zm-4.2654 10.3809c2.4153 0 4.1626-1.5931 4.1626-3.9314 0-2.3125-1.7473-3.88-4.1626-3.88-2.4411 0-4.1884 1.5675-4.1884 3.88 0 2.3383 1.7473 3.9314 4.1884 3.9314zm13.1646-12.6421c-1.182 0-2.0556-.8479-2.0556-1.9271s.8736-1.9272 2.0556-1.9272 2.0556.7966 2.0556 1.8501c0 1.1306-.8479 2.0042-2.0556 2.0042zm-1.6188 15.9825v-13.7213h3.2119v13.7213zm11.6673.1799c-2.2869 0-4.5738-.6681-5.8072-1.5417l1.2334-2.4411c1.2077.7966 3.0577 1.3618 4.7793 1.3618 2.03 0 2.8779-.5652 2.8779-1.516 0-2.6209-8.4795-.1541-8.4795-5.6272 0-2.5953 2.3383-4.2912 6.0384-4.2912 1.8244 0 3.9057.4369 5.1391 1.182l-1.2334 2.4411c-1.3104-.7709-2.6209-1.0278-3.9314-1.0278-1.9528 0-2.8778.6423-2.8778 1.5417 0 2.7751 8.4794.3083 8.4794 5.6786 0 2.5696-2.3639 4.2398-6.2182 4.2398zm16.3327-3.2119.9 2.2868c-.771.6167-1.927.9251-3.084.9251-3.006 0-4.7276-1.5931-4.7276-4.6252v-6.6037h-2.2612v-2.5695h2.2612v-3.1348h3.2116v3.1348h3.675v2.5695h-3.675v6.5266c0 1.3362.668 2.0557 1.902 2.0557.668 0 1.31-.1799 1.798-.5653zm6.6-8.6851c.925-1.4389 2.595-2.1584 4.882-2.1584v3.0578c-.283-.0514-.514-.0771-.745-.0771-2.441 0-3.983 1.4389-3.983 4.2397v6.6551h-3.212v-13.7213h3.058zm12.773-2.1584c3.957 0 6.244 1.8758 6.244 5.8329v8.0426h-3.032v-1.6702c-.771 1.182-2.261 1.8501-4.317 1.8501-3.135 0-5.113-1.7216-5.113-4.1113 0-2.2869 1.542-4.0855 5.704-4.0855h3.546v-.2056c0-1.8758-1.13-2.9806-3.417-2.9806-1.542 0-3.135.5139-4.163 1.3618l-1.259-2.3383c1.465-1.1306 3.597-1.6959 5.807-1.6959zm-.437 11.7171c1.568 0 2.93-.7195 3.469-2.1327v-1.5931h-3.315c-2.184 0-2.775.8222-2.775 1.8243 0 1.1563.977 1.9015 2.621 1.9015zm13.861-9.5587c.925-1.4389 2.595-2.1584 4.882-2.1584v3.0578c-.283-.0514-.514-.0771-.745-.0771-2.441 0-3.983 1.4389-3.983 4.2397v6.6551h-3.212v-13.7213h3.058zm11.897 11.897c-2.287 0-4.574-.6681-5.808-1.5417l1.234-2.4411c1.207.7966 3.058 1.3618 4.779 1.3618 2.03 0 2.878-.5652 2.878-1.516 0-2.6209-8.479-.1541-8.479-5.6272 0-2.5953 2.338-4.2912 6.038-4.2912 1.824 0 3.906.4369 5.139 1.182l-1.233 2.4411c-1.311-.7709-2.621-1.0278-3.932-1.0278-1.953 0-2.878.6423-2.878 1.5417 0 2.7751 8.48.3083 8.48 5.6786 0 2.5696-2.364 4.2398-6.218 4.2398zm21.883-6.9635c0 .257-.026.6424-.051.9508h-10.767c.386 2.0042 2.056 3.289 4.446 3.289 1.541 0 2.749-.4882 3.725-1.4904l1.722 1.9786c-1.233 1.4646-3.161 2.2355-5.525 2.2355-4.599 0-7.58-2.955-7.58-7.0405 0-4.0856 3.007-7.0149 7.092-7.0149 4.009 0 6.938 2.8008 6.938 7.0919zm-6.938-4.5223c-2.081 0-3.597 1.3361-3.905 3.3404h7.785c-.257-1.9786-1.773-3.3404-3.88-3.3404z" fill="#fff"/></svg>

<svg width="195" height="67" viewBox="0 0 195 67" fill="none" xmlns="http://www.w3.org/2000/svg">
<g filter="url(#filter0_d_22_6224)">
<rect x="9.06494" y="9" width="177" height="49" rx="13.2147" fill="#0EAD74"/>
</g>
<path d="M38.976 41.9812H35.3786L31.7042 36.7137C31.4729 36.7394 31.2417 36.7394 31.0104 36.7394H26.9506V41.9812H23.6102V23.9945H31.0104C35.7384 23.9945 38.6676 26.4099 38.6676 30.3926C38.6676 33.1163 37.2801 35.1206 34.839 36.0713L38.976 41.9812ZM35.3015 30.3926C35.3015 28.1314 33.7855 26.821 30.8563 26.821H26.9506V33.99H30.8563C33.7855 33.99 35.3015 32.6538 35.3015 30.3926ZM54.9956 35.1976C54.9956 35.4546 54.9699 35.84 54.9442 36.1484H44.1779C44.5633 38.1526 46.2335 39.4374 48.6231 39.4374C50.1649 39.4374 51.3725 38.9492 52.349 37.947L54.0705 39.9256C52.8372 41.3902 50.91 42.1611 48.5461 42.1611C43.9466 42.1611 40.9659 39.2061 40.9659 35.1206C40.9659 31.035 43.9723 28.1057 48.0578 28.1057C52.0663 28.1057 54.9956 30.9065 54.9956 35.1976ZM48.0578 30.6753C45.9765 30.6753 44.4605 32.0114 44.1522 34.0157H51.9378C51.6809 32.0371 50.1649 30.6753 48.0578 30.6753ZM68.6416 28.2599H71.6993V39.8999C71.6993 44.8848 69.1041 47.146 64.2991 47.146C61.7296 47.146 59.1857 46.4779 57.6183 45.1931L59.0572 42.7778C60.2649 43.7799 62.2178 44.4223 64.1192 44.4223C67.1513 44.4223 68.4874 43.0347 68.4874 40.2596V39.5401C67.3568 40.7735 65.738 41.3645 63.888 41.3645C59.9566 41.3645 56.9502 38.6922 56.9502 34.7094C56.9502 30.7267 59.9566 28.1057 63.888 28.1057C65.8151 28.1057 67.511 28.7224 68.6416 30.0843V28.2599ZM64.3762 38.6408C66.7915 38.6408 68.5388 37.0477 68.5388 34.7094C68.5388 32.3969 66.7915 30.8294 64.3762 30.8294C61.9351 30.8294 60.1878 32.3969 60.1878 34.7094C60.1878 37.0477 61.9351 38.6408 64.3762 38.6408ZM77.5408 25.9987C76.3588 25.9987 75.4852 25.1508 75.4852 24.0716C75.4852 22.9924 76.3588 22.1444 77.5408 22.1444C78.7228 22.1444 79.5964 22.941 79.5964 23.9945C79.5964 25.1251 78.7485 25.9987 77.5408 25.9987ZM75.922 41.9812V28.2599H79.1339V41.9812H75.922ZM87.5893 42.1611C85.3024 42.1611 83.0155 41.493 81.7821 40.6194L83.0155 38.1783C84.2232 38.9749 86.0732 39.5401 87.7948 39.5401C89.8248 39.5401 90.6727 38.9749 90.6727 38.0241C90.6727 35.4032 82.1932 37.87 82.1932 32.3969C82.1932 29.8016 84.5315 28.1057 88.2316 28.1057C90.056 28.1057 92.1373 28.5426 93.3707 29.2877L92.1373 31.7288C90.8269 30.9579 89.5164 30.701 88.2059 30.701C86.2531 30.701 85.3281 31.3433 85.3281 32.2427C85.3281 35.0178 93.8075 32.551 93.8075 37.9213C93.8075 40.4909 91.4436 42.1611 87.5893 42.1611ZM103.922 38.9492L104.822 41.236C104.051 41.8527 102.895 42.1611 101.738 42.1611C98.732 42.1611 97.0104 40.568 97.0104 37.5359V30.9322H94.7492V28.3627H97.0104V25.2279H100.222V28.3627H103.897V30.9322H100.222V37.4588C100.222 38.795 100.89 39.5145 102.124 39.5145C102.792 39.5145 103.434 39.3346 103.922 38.9492ZM110.522 30.2641C111.447 28.8252 113.117 28.1057 115.404 28.1057V31.1635C115.121 31.1121 114.89 31.0864 114.659 31.0864C112.218 31.0864 110.676 32.5253 110.676 35.3261V41.9812H107.464V28.2599H110.522V30.2641ZM123.295 28.1057C127.252 28.1057 129.539 29.9815 129.539 33.9386V41.9812H126.507V40.311C125.736 41.493 124.246 42.1611 122.19 42.1611C119.055 42.1611 117.077 40.4395 117.077 38.0498C117.077 35.7629 118.619 33.9643 122.781 33.9643H126.327V33.7587C126.327 31.8829 125.197 30.7781 122.91 30.7781C121.368 30.7781 119.775 31.292 118.747 32.1399L117.488 29.8016C118.953 28.671 121.085 28.1057 123.295 28.1057ZM122.858 39.8228C124.426 39.8228 125.788 39.1033 126.327 37.6901V36.097H123.012C120.828 36.097 120.237 36.9192 120.237 37.9213C120.237 39.0776 121.214 39.8228 122.858 39.8228ZM136.719 30.2641C137.644 28.8252 139.314 28.1057 141.601 28.1057V31.1635C141.318 31.1121 141.087 31.0864 140.856 31.0864C138.415 31.0864 136.873 32.5253 136.873 35.3261V41.9812H133.661V28.2599H136.719V30.2641ZM148.616 42.1611C146.329 42.1611 144.042 41.493 142.808 40.6194L144.042 38.1783C145.249 38.9749 147.1 39.5401 148.821 39.5401C150.851 39.5401 151.699 38.9749 151.699 38.0241C151.699 35.4032 143.22 37.87 143.22 32.3969C143.22 29.8016 145.558 28.1057 149.258 28.1057C151.082 28.1057 153.164 28.5426 154.397 29.2877L153.164 31.7288C151.853 30.9579 150.543 30.701 149.232 30.701C147.279 30.701 146.354 31.3433 146.354 32.2427C146.354 35.0178 154.834 32.551 154.834 37.9213C154.834 40.4909 152.47 42.1611 148.616 42.1611ZM170.499 35.1976C170.499 35.4546 170.473 35.84 170.448 36.1484H159.681C160.067 38.1526 161.737 39.4374 164.127 39.4374C165.668 39.4374 166.876 38.9492 167.852 37.947L169.574 39.9256C168.341 41.3902 166.413 42.1611 164.049 42.1611C159.45 42.1611 156.469 39.2061 156.469 35.1206C156.469 31.035 159.476 28.1057 163.561 28.1057C167.57 28.1057 170.499 30.9065 170.499 35.1976ZM163.561 30.6753C161.48 30.6753 159.964 32.0114 159.656 34.0157H167.441C167.184 32.0371 165.668 30.6753 163.561 30.6753Z" fill="white"/>
<defs>
<filter id="filter0_d_22_6224" x="0.255126" y="0.190184" width="194.62" height="66.6196" filterUnits="userSpaceOnUse" color-interpolation-filters="sRGB">
<feFlood flood-opacity="0" result="BackgroundImageFix"/>
<feColorMatrix in="SourceAlpha" type="matrix" values="0 0 0 0 0 0 0 0 0 0 0 0 0 0 0 0 0 0 127 0" result="hardAlpha"/>
<feMorphology radius="1.4683" operator="dilate" in="SourceAlpha" result="effect1_dropShadow_22_6224"/>
<feOffset/>
<feGaussianBlur stdDeviation="3.67076"/>
<feComposite in2="hardAlpha" operator="out"/>
<feColorMatrix type="matrix" values="0 0 0 0 0 0 0 0 0 0 0 0 0 0 0 0 0 0 0.25 0"/>
<feBlend mode="normal" in2="BackgroundImageFix" result="effect1_dropShadow_22_6224"/>
<feBlend mode="normal" in="SourceGraphic" in2="effect1_dropShadow_22_6224" result="shape"/>
</filter>
</defs>
</svg>
